styles/3/Numix/32/places/purple-folder-hdd.svg

<?xml version="1.0" encoding="UTF-8" standalone="no"?>
<!-- Created with Inkscape (http://www.inkscape.org/) -->

<svg
   xmlns:dc="http://purl.org/dc/elements/1.1/"
   xmlns:cc="http://creativecommons.org/ns#"
   xmlns:rdf="http://www.w3.org/1999/02/22-rdf-syntax-ns#"
   xmlns:svg="http://www.w3.org/2000/svg"
   xmlns="http://www.w3.org/2000/svg"
   xmlns:sodipodi="http://sodipodi.sourceforge.net/DTD/sodipodi-0.dtd"
   xmlns:inkscape="http://www.inkscape.org/namespaces/inkscape"
   width="32"
   height="32"
   id="svg2"
   version="1.1"
   inkscape:version="0.91 r"
   sodipodi:docname="purple-folder-hdd.svg"
   inkscape:export-filename="/media/Data/Main/Visuals/Icons/Numix/Desktop/repos/numix-wiki/Gjorgi/Numix-folders/48/New/folder-144.png"
   inkscape:export-xdpi="270"
   inkscape:export-ydpi="270">
  <defs
     id="defs4" />
  <sodipodi:namedview
     id="base"
     pagecolor="#ffffff"
     bordercolor="#666666"
     borderopacity="1.0"
     inkscape:pageopacity="0.0"
     inkscape:pageshadow="2"
     inkscape:zoom="22.627417"
     inkscape:cx="5.105841"
     inkscape:cy="10.917546"
     inkscape:document-units="px"
     inkscape:current-layer="layer1"
     showgrid="true"
     inkscape:window-width="1280"
     inkscape:window-height="998"
     inkscape:window-x="0"
     inkscape:window-y="0"
     inkscape:window-maximized="1"
     showguides="true"
     inkscape:guide-bbox="true">
    <inkscape:grid
       type="xygrid"
       id="grid2985"
       empspacing="5"
       visible="true"
       enabled="true"
       snapvisiblegridlinesonly="true" />
  </sodipodi:namedview>
  <metadata
     id="metadata7">
    <rdf:RDF>
      <cc:Work
         rdf:about="">
        <dc:format>image/svg+xml</dc:format>
        <dc:type
           rdf:resource="http://purl.org/dc/dcmitype/StillImage" />
        <dc:title />
      </cc:Work>
    </rdf:RDF>
  </metadata>
  <g
     inkscape:label="Layer 1"
     inkscape:groupmode="layer"
     id="layer1"
     transform="translate(0,-1020.3622)">
    <rect
       style="fill:#512da8;fill-opacity:1;stroke:none"
       id="rect3757"
       width="26"
       height="10"
       x="3"
       y="1026.3622" />
    <path
       style="fill:#512da8;fill-opacity:1;stroke:none"
       d="m 5.9999995,1026.3622 c 0,-1 0,-2 1.454546,-2 l 5.0909095,0 c 1.454545,0 1.454545,1 1.454545,2 l 0,1 -8.0000005,0 z"
       id="path3759"
       inkscape:connector-curvature="0"
       sodipodi:nodetypes="ccccccc" />
    <path
       style="fill:#95989f;fill-opacity:1;stroke:none"
       d="m 5,1028.3622 22,0 0,4.9677 -22,0 z"
       id="path3765"
       inkscape:connector-curvature="0" />
    <rect
       y="1027.3622"
       x="7"
       height="12.999977"
       width="19"
       id="rect3763"
       style="fill:#d8d8da;fill-opacity:1;stroke:none" />
    <rect
       style="fill:#f9f9f9;fill-opacity:1;stroke:none"
       id="rect3761"
       width="19"
       height="12.999977"
       x="6"
       y="1029.3622" />
    <path
       style="fill:#7e57c2;fill-opacity:1;stroke:none"
       d="m 1,1030.3622 30,0 -2.142857,18 -25.7142859,0 z"
       id="path2987"
       inkscape:connector-curvature="0"
       sodipodi:nodetypes="ccccc" />
    <path
       style="opacity:1.0;fill:#54398d;fill-opacity:1;stroke:none"
       d="M 12 13 C 11.287715 13 11 13.3352 11 14 L 11 24 C 11 24.6648 11.287715 25 12 25 L 19.71875 25 C 20.431036 25 21 24.6648 21 24 L 21 14 C 21 13.3352 20.712286 13 20 13 L 12 13 z M 12.5 14 C 12.776142 14 13 14.223858 13 14.5 C 13 14.776142 12.776142 15 12.5 15 C 12.223858 15 12 14.776142 12 14.5 C 12 14.223858 12.223858 14 12.5 14 z M 19.5 14 C 19.776142 14 20 14.223858 20 14.5 C 20 14.776142 19.776142 15 19.5 15 C 19.223858 15 19 14.776142 19 14.5 C 19 14.223858 19.223858 14 19.5 14 z M 16 15 C 17.104569 15 18 15.895431 18 17 C 18 18.104569 17.104569 19 16 19 C 14.895431 19 14 18.104569 14 17 C 14 15.895431 14.895431 15 16 15 z M 12.5 19 C 12.776142 19 13 19.223858 13 19.5 C 13 19.776142 12.776142 20 12.5 20 C 12.223858 20 12 19.776142 12 19.5 C 12 19.223858 12.223858 19 12.5 19 z M 19.5 19 C 19.776142 19 20 19.223858 20 19.5 C 20 19.776142 19.776142 20 19.5 20 C 19.223858 20 19 19.776142 19 19.5 C 19 19.223858 19.223858 19 19.5 19 z M 12.5 23 L 19.5 23 C 19.777 23 20 23.223 20 23.5 C 20 23.777 19.777 24 19.5 24 L 12.5 24 C 12.223 24 12 23.777 12 23.5 C 12 23.223 12.223 23 12.5 23 z "
       transform="translate(0,1020.3622)"
       id="rect3828" />
  </g>
</svg>

<!-- Created with Inkscape (http://www.inkscape.org/) -->
<svg xmlns="http://www.w3.org/2000/svg" viewBox="0 0 32 32">
 <g transform="translate(0,-1020.3622)">
  <rect width="26" height="10" x="3" y="1026.36" style="fill:#512da8;fill-opacity:1;stroke:none"/>
  <path d="m 6 1026.36 c 0 -1 0 -2 1.455 -2 l 5.091 0 c 1.455 0 1.455 1 1.455 2 l 0 1 -8 0 z" style="fill:#512da8;fill-opacity:1;stroke:none"/>
  <path d="m 5 1028.36 22 0 0 4.968 -22 0 z" style="fill:#95989f;fill-opacity:1;stroke:none"/>
  <rect y="1027.36" x="7" height="13" width="19" style="fill:#d8d8da;fill-opacity:1;stroke:none"/>
  <rect width="19" height="13" x="6" y="1029.36" style="fill:#f9f9f9;fill-opacity:1;stroke:none"/>
  <path d="m 1 1030.36 30 0 -2.143 18 -25.714 0 z" style="fill:#7e57c2;fill-opacity:1;stroke:none"/>
  <path d="m 12 13 c -0.712 0 -1 0.335 -1 1 l 0 10 c 0 0.665 0.288 1 1 1 l 7.719 0 c 0.712 0 1.281 -0.335 1.281 -1 l 0 -10 c 0 -0.665 -0.288 -1 -1 -1 l -8 0 z m 0.5 1 c 0.276 0 0.5 0.224 0.5 0.5 c 0 0.276 -0.224 0.5 -0.5 0.5 c -0.276 0 -0.5 -0.224 -0.5 -0.5 c 0 -0.276 0.224 -0.5 0.5 -0.5 z m 7 0 c 0.276 0 0.5 0.224 0.5 0.5 c 0 0.276 -0.224 0.5 -0.5 0.5 c -0.276 0 -0.5 -0.224 -0.5 -0.5 c 0 -0.276 0.224 -0.5 0.5 -0.5 z m -3.5 1 c 1.105 0 2 0.895 2 2 c 0 1.105 -0.895 2 -2 2 c -1.105 0 -2 -0.895 -2 -2 c 0 -1.105 0.895 -2 2 -2 z m -3.5 4 c 0.276 0 0.5 0.224 0.5 0.5 c 0 0.276 -0.224 0.5 -0.5 0.5 c -0.276 0 -0.5 -0.224 -0.5 -0.5 c 0 -0.276 0.224 -0.5 0.5 -0.5 z m 7 0 c 0.276 0 0.5 0.224 0.5 0.5 c 0 0.276 -0.224 0.5 -0.5 0.5 c -0.276 0 -0.5 -0.224 -0.5 -0.5 c 0 -0.276 0.224 -0.5 0.5 -0.5 z m -7 4 l 7 0 c 0.277 0 0.5 0.223 0.5 0.5 c 0 0.277 -0.223 0.5 -0.5 0.5 l -7 0 c -0.277 0 -0.5 -0.223 -0.5 -0.5 c 0 -0.277 0.223 -0.5 0.5 -0.5 z" transform="translate(0,1020.3622)" style="fill:#54398d;opacity:1;fill-opacity:1;stroke:none"/>
 </g>
</svg>
